X: 3094
T: The KEEL ROW
Q:"Reel."
R: Reel.
%R:reel
B: James Kerr "Merry Melodies" v.3 p.12 #94
Z: 2016 John Chambers <jc:trillian.mit.edu>
M: C
L: 1/8
K: A
|:\
c2Ac d2Bd | c2Ac BGE2 |\
c2Ac d2Bd | cABG Afed ::\
(ce)ea f2ed | c2Ac (BG)Ed |\
[1 (ce)ea f2ed | cABG Afed :|\
[2 ceea gfed | cABG A2e2 |]

%%sep 1 1 500
%%sep 1 1 500

